www/assets/icons/admin_panel_settings.svg

<svg xmlns="http://www.w3.org/2000/svg" width="24" height="24" viewBox="0 0 24 24" fill='currentColor'><path d="M17 11c.34 0 .67.04 1 .09V6.27L10.5 3 3 6.27v4.91c0 4.54 3.2 8.79 7.5 9.82.55-.13 1.08-.32 1.6-.55-.69-.98-1.1-2.17-1.1-3.45 0-3.31 2.69-6 6-6"/><path d="M17 13c-2.21 0-4 1.79-4 4s1.79 4 4 4 4-1.79 4-4-1.79-4-4-4m0 1.38c.62 0 1.12.51 1.12 1.12s-.51 1.12-1.12 1.12-1.12-.51-1.12-1.12.5-1.12 1.12-1.12m0 5.37c-.93 0-1.74-.46-2.24-1.17.05-.72 1.51-1.08 2.24-1.08s2.19.36 2.24 1.08c-.5.71-1.31 1.17-2.24 1.17"/></svg>

<svg width="24" height="24" viewBox="0 0 24 24" xmlns="http://www.w3.org/2000/svg" fill='currentColor'><path d="M17 11C17.34 11 17.67 11.04 18 11.09V6.27L10.5 3L3 6.27V11.18C3 15.72 6.2 19.97 10.5 21C11.05 20.87 11.58 20.68 12.1 20.45C11.41 19.47 11 18.28 11 17C11 13.69 13.69 11 17 11Z"/><path d="M17 13C14.79 13 13 14.79 13 17C13 19.21 14.79 21 17 21C19.21 21 21 19.21 21 17C21 14.79 19.21 13 17 13ZM17 14.38C17.62 14.38 18.12 14.89 18.12 15.5C18.12 16.11 17.61 16.62 17 16.62C16.39 16.62 15.88 16.11 15.88 15.5C15.88 14.89 16.38 14.38 17 14.38ZM17 19.75C16.07 19.75 15.26 19.29 14.76 18.58C14.81 17.86 16.27 17.5 17 17.5C17.73 17.5 19.19 17.86 19.24 18.58C18.74 19.29 17.93 19.75 17 19.75Z"/></svg>
